X:5002
T:The Boys of Derrymacash
M:4/4
R:Reel
L:1/8
C:Aidan Crossey
K:C
|:GF|(3EFECE G,ECE|FEDE F2GF|(3EFECE AGFE|DCB,A, G,2GF|
(3EFECE G,ECE|FEDE F2GF|EG,CE DG,B,D|C2E2 C2:||
|:GF|(3EFGcG eGcG|dcBA G2GF|(3EFGcG eGcG|dcBA c2cd|
edcB dcBA|cBAB G2GF| EG,CE DG,B,D|C2E2 C2:||
